public/build/img/sistema/phone.svg

<svg width="15" height="15" viewBox="0 0 15 15" fill="none" xmlns="http://www.w3.org/2000/svg">
<g clip-path="url(#clip0_167_33)">
<path d="M4.83105 0.720753C4.60547 0.175832 4.01074 -0.114208 3.44238 0.0410659L0.864258 0.744191C0.354492 0.884816 0 1.34771 0 1.87505C0 9.1231 5.87695 15 13.125 15C13.6523 15 14.1152 14.6456 14.2559 14.1358L14.959 11.5577C15.1143 10.9893 14.8242 10.3946 14.2793 10.169L11.4668 8.99712C10.9893 8.7979 10.4355 8.9356 10.1104 9.33696L8.92676 10.7813C6.86426 9.80571 5.19434 8.13579 4.21875 6.07329L5.66309 4.89263C6.06445 4.5645 6.20215 4.01372 6.00293 3.53618L4.83105 0.723683V0.720753Z" fill="#0538A5"/>
</g>
<defs>
<clipPath id="clip0_167_33">
<rect width="15" height="15" fill="white"/>
</clipPath>
</defs>
</svg>

<svg width="15" height="15" fill="none" xmlns="http://www.w3.org/2000/svg"><g clip-path="url(#a)"><path d="M4.831.72A1.168 1.168 0 0 0 3.442.042L.864.744C.354.884 0 1.348 0 1.875 0 9.123 5.877 15 13.125 15c.527 0 .99-.354 1.13-.864l.704-2.578a1.168 1.168 0 0 0-.68-1.389l-2.812-1.172a1.168 1.168 0 0 0-1.357.34l-1.183 1.444a9.902 9.902 0 0 1-4.708-4.708l1.444-1.18a1.17 1.17 0 0 0 .34-1.357L4.83.724V.72Z" fill="#0538A5"/></g><defs><clipPath id="a"><path fill="#fff" d="M0 0h15v15H0z"/></clipPath></defs></svg>
